X: 18514
T: I Gelati Sono Finiti
R: polka
M: 2/4
K: Aminor
A|:cA eA|a3 c'|b/c'/b/a/ g/a/g/f/|e3 e|f f/e/ d/e/f/d/|c3 e|fe dc|B3A|
cA eA|a3 c'|b/c'/b/a/ g/a/g/f/|e3 e|f f/e/ d/e/f/d/|c3 c/e/|e e/e/ e/d/B/c/|A3 A:|:
G>A B/G/B/d/|c2 z/c/d/e/|ff/e/ d/e/f/d/|B3A|G>A B/G/B/d/|c2 z/c/d/e/|1 fe (d/e/d/)c/|A3A:|2 fe (d/e/d/)B/|c3||

